img/mail-icon.svg

<svg width="65" height="65" viewBox="0 0 65 65" fill="none" xmlns="http://www.w3.org/2000/svg">
<path d="M8.91825 14.3349C9.40836 13.8448 10.0854 13.5417 10.8333 13.5417H54.1667C54.9146 13.5417 55.5916 13.8448 56.0817 14.3349M8.91825 14.3349C8.42814 14.825 8.125 15.5021 8.125 16.25V48.75C8.125 50.2458 9.33756 51.4583 10.8333 51.4583H54.1667C55.6624 51.4583 56.875 50.2458 56.875 48.75V16.25C56.875 15.5021 56.5719 14.825 56.0817 14.3349M8.91825 14.3349L28.6698 34.0864C30.7852 36.2017 34.2148 36.2017 36.3302 34.0864L56.0817 14.3349" stroke="#C0B7E8" stroke-width="6" stroke-linecap="round" stroke-linejoin="round"/>
</svg>

<svg width="65" height="65" fill="none" xmlns="http://www.w3.org/2000/svg"><path d="M8.918 14.335a2.7 2.7 0 0 1 1.915-.793h43.334a2.7 2.7 0 0 1 1.915.793m-47.164 0a2.7 2.7 0 0 0-.793 1.915v32.5a2.708 2.708 0 0 0 2.708 2.708h43.334a2.708 2.708 0 0 0 2.708-2.708v-32.5a2.7 2.7 0 0 0-.793-1.915m-47.164 0L28.67 34.086a5.417 5.417 0 0 0 7.66 0l19.752-19.751" stroke="#C0B7E8" stroke-width="6" stroke-linecap="round" stroke-linejoin="round"/></svg>
